Front/img/common-section_sousmetier/illu-25.svg

<svg xmlns="http://www.w3.org/2000/svg" fill="none" viewBox="0 0 470 542"><path fill="#E1E1E1" d="M469.802 100c0-55.228-44.772-100-100-100h-82.213c-60.752 0-110 49.249-110 110v431h292.213V100z"/><path fill="#D2D2D2" d="M360.201 515.882c30.275-30.18 69.493-94.367 83.611-121.517l-280.04-31.416-127.864 79.635c130.754 48.8 285.007 112.463 324.293 73.298z"/><path fill="#fff" d="M407.806 150.117l-66-10v92l66 10v-92z"/><path fill="#E1E1E1" d="M399.806 161.117l-50-9v70l50 9v-70z"/><path fill="#272E80" d="M372.806 190.617c1.2-10 18.5-23.833 27-29.5v51c-9.5-3-28.2-11.5-27-21.5z"/><path fill="#FF8139" d="M365.306 194.117c4.8-10-8.334-16.5-15.5-18.5v46.5l28.5 5c-20.5-9-19-20.5-13-33z"/><path stroke="#000" d="M371.344 225.454c5.333-7 16.5-24.4 18.5-38 2-13.6-25.5 1.667-39.5 11"/><path fill="#fff" d="M133.644 393.721l-3.266-75.604 312.202 75.604a234.148 234.148 0 01-204.197 32.393l-104.739-32.393z"/><ellipse fill="#152D5D" rx="13.5" ry="7" transform="matrix(-1 0 0 1 360.562 404.918)"/><ellipse fill="#152D5D" rx="13.5" ry="6" transform="matrix(-1 0 0 1 360.562 381.918)"/><path fill="#152D5D" d="M374.062 404.918v-23h-27v23h27z"/><ellipse fill="#000" rx="11.5" ry="5" transform="matrix(-1 0 0 1 360.562 381.918)"/><path fill="#FF8139" d="M374.062 363.918l-4.5 21c-.8.8-2 1-2.5 1l5-22.5 2 .5z"/><path fill="#FFD300" d="M352.062 365.418l7.5 21.5c-1.6 0-3-.333-3.5-.5l-7-20 3-1z"/><path fill="#152D5D" d="M227.874 293.164a4 4 0 014.642-2.991l89.192 17.103a4 4 0 013.139 4.849l-14.001 59.191a3.999 3.999 0 01-4.813 2.972l-88.539-20.943a4 4 0 01-2.968-4.83l13.348-55.351z"/><path fill="#F5F5F5" d="M229.213 295.813a3.999 3.999 0 014.623-3l85.106 15.885a4 4 0 013.159 4.853l-13.306 56.252a4 4 0 01-4.813 2.972l-84.316-19.944a3.999 3.999 0 01-2.969-4.825l12.516-52.193z"/><path fill="#152D5D" d="M192.448 359.24l23.685-6.729 92.449 21.868-21.252 7.304-94.882-22.443z"/><path fill="#fff" d="M192.908 357.293l-.46 1.946 4.353-1.025-3.893-.921z"/><path fill="#152D5D" d="M192.908 357.291l23.685-6.729 92.449 21.868-21.252 7.304-94.882-22.443z"/><path fill="#fff" d="M242.203 361.758l-7.476 3.369 22.382 5.295 6.99-3.485-21.896-5.179zM237.196 359.033l3.406.805-1.203.743-3.893-.92 1.69-.628zM232.331 357.884l3.406.806-1.204.743-3.892-.921 1.69-.628zM227.465 356.732l3.406.806-1.204.743-3.892-.921 1.69-.628zM262.011 364.902l3.893.921-1.204.743-3.892-.921 1.203-.743zM266.877 366.054l3.893.921-1.203.743-3.893-.921 1.203-.743zM271.743 367.207l3.892.92-1.203.743-3.893-.92 1.204-.743zM276.609 368.355l3.892.921-1.203.743-3.892-.921 1.203-.743zM281.474 369.508l3.893.92-1.204.743-3.892-.921 1.203-.742zM286.34 370.66l3.893.921-1.203.743-3.893-.921 1.203-.743zM241.55 358.009l3.406.806-1.204.743-3.892-.921 1.69-.628zM246.415 359.158l3.406.805-1.204.743-3.892-.92 1.69-.628zM251.281 360.31l3.406.806-1.203.743-3.893-.921 1.69-.628zM256.146 361.462l3.406.806-1.203.743-3.893-.921 1.69-.628zM261.012 362.611l3.406.806-1.203.743-3.892-.921 1.689-.628zM236.683 356.857l3.406.806-1.203.743-3.893-.921 1.69-.628zM231.818 355.705l3.406.805-1.203.743-3.893-.92 1.69-.628zM265.391 363.648l3.893.921-1.204.743-3.892-.921 1.203-.743zM270.257 364.8l3.893.921-1.203.743-3.893-.921 1.203-.743zM275.123 365.949l3.892.921-1.203.743-3.893-.921 1.204-.743zM279.989 367.101l3.892.921-1.203.743-3.893-.921 1.204-.743zM284.854 368.25l3.893.92-1.204.743-3.892-.92 1.203-.743zM289.72 369.402l3.893.921-1.204.743-3.892-.921 1.203-.743zM259.696 365.385l-14.458-3.42 1.342-.71 14.458 3.42-1.342.71zM242.062 360.185l3.406.806-1.203.743-3.893-.921 1.69-.628z"/><path fill="#E2BBA6" d="M210.977 394.741s-10.865-1.462-19.56-12.276c0 0 2.169 9.092-9.429 19.505-8.033 7.189-1.767 45.488 1.617 52.246 0 0-32.052 31.58-84.226 6.288 0 0 13.104-47.69 14.058-74.654 1.174-30.619 4.719-50.304 15.443-79.211 10.724-28.906 13.264-44.856 11.808-60.076-1.455-15.219-.722-39.049 26.108-44.806 26.83-5.758 30.003 25.792 30.003 25.792s2.37 40.341-8.184 49.583c-9.248 8.15-25.103-2.193-25.103-2.193s-3.675 18.714.583 25.322c0 0 5.874 6.719 20.383 12.496 15.152 6.008 17.582 50.064 25.615 58.134"/><path fill="#CEA999" d="M180.03 202.23c1.075 6.559 2.792 17.092 4.378 27.475-1.004-9.782-2.862-20.616-4.147-27.394l-.231-.081z"/><path fill="#CEA999" d="M196.779 227.59l-12.371 2.113.623 9.411c.12 5.167-.292 9.312-1.567 11.275-5.342 8.24-7.47-11.014-11.889-10.594-4.418.421-6.476 5.447-3.303 14.018 3.173 8.571-8.234 10.954-9.218 15.76-.984 4.806-8.645 31.87 0 41.132l13.244-4.005a40.023 40.023 0 01-8.193-6.398c-4.258-6.608-.583-25.322-.583-25.322s15.845 10.343 25.103 2.193a12.062 12.062 0 002.009-2.323c5.271-7.38 6.024-26.113 6.175-30.128.151-4.016-.03-17.132-.03-17.132z"/><path fill="#292289" d="M130.507 302.164s-4.8 4.005-9.128 16.02c-4.328 12.016 6.929-6.918 6.929-6.918l1.325-6.699.874-2.403z"/><path fill="#F4EFEF" d="M182.3 450.633s15.365 54.962 14.502 89.366h-117s1-27.5 5.5-45.5 15.975-41.213 15.975-41.213 44.533 22.819 81.023-2.653z"/><path fill="#F4EFEF" d="M254.064 490.805c-10.704-4.789-50.469-20.305-69.013-27.465l3.169 78.169h82.042c-.939-14.906-5.493-45.916-16.198-50.704z"/><path fill="#F4C7C3" d="M314.219 360.799c-16.465 3.992-39.533 12.921-69.968 7.433-30.435-5.488-39.423-42.778-59.773-55.433a70.694 70.694 0 01-15.614-8.401c-23.798 7.84-34.512 5.077-39.241.151-.251.691-7.634 6.527-11.822 17.451-5 31-6.835 44.727-7.939 75.336-1.004 26.964-8.595 55.951-8.595 55.951 7.34 33.452 82.338.931 82.338.931-2.953-7.85-9.62-45.057-1.617-52.246 11.598-10.413 9.429-19.505 9.429-19.505 18.718 19.505 42.613 19.505 42.613 19.505 22.809 0 74.241-19.505 86.216-26.25l-6.027-14.923z"/><path fill="#D3A8A4" d="M320.372 376.176l-1.81-4.57s-58.928 27.953-85.948 26.769c-9.341-.41-17.641-6.096-26.989-8.87-9.348-2.773-18.506-20.485-18.506-20.485-.803 18.373-12.883 21.266-20.233 36.245-5.452 11.115-1.526 40.472.864 54.89 9.348-3.124 15.855-5.938 15.855-5.938-2.952-7.85-9.62-45.057-1.617-52.246 11.598-10.413 9.429-19.504 9.429-19.504 8.695 10.833 22.251 17.021 22.251 17.021 23.542 12.817 95.007-17.69 106.704-23.312z"/><path fill="#000" d="M133.479 464.07c.181 1.212.352 2.393.523 3.565-.171-1.172-.342-2.353-.523-3.565zM133.338 463.15c0-.321-.09-.641-.14-1.002.04.361.1.681.14 1.002z" opacity=".3"/><path fill="#00181B" d="M184.802 240l14.5-5.001c1-1.5-1.429-18.5-7.5-27-5-7-12.5-11.5-17.5-9.5-15-2-41-10.499-52.5 24.001-3.772 11.314-11.5 46.499-11.5 90.499 0 34.064 7 44.5 23 44.5 24.5 0 41.5-35.166 43.5-48 2 1.6 6.166 3 8 3.5-3.6-7.2-3.167-61.666-2.5-88 1 7.001 2.5 13.834 2.5 15.001z"/><path fill="#E1E1E1" d="M133.938 521l-4.136 19h10c-2-9-5.228-16.833-5.864-19z"/><path fill="#C4C4C4" d="M133.802 521l-4 19h-8l4-14.5-10.5-6c4.8.8 14.333 1.333 18.5 1.5z"/><path fill="#FAFAFC" d="M116.222 391.305c-9.706-5.994-28.216-7.87-47.652-7.86-39.527.021-68.462 34.639-68.462 74.166v83.388h226.583c.134-3.497.322-15.897 0-37.524-.323-21.627-15.724-30.262-23.384-31.876H152.91c.646-49.387-10.553-64.155-36.688-80.294z"/><path fill="#00181B" d="M363.5 328.221a.5.5 0 11.491.871l-.491-.871zm-5.073 2.86l5.073-2.86.491.871-5.073 2.86-.491-.871zM360.316 326.467a.5.5 0 11.491.871l-.491-.871zm-5.073 2.86l5.073-2.86.491.871-5.073 2.86-.491-.871z"/><path fill="#1C3B78" d="M361.182 333.421l-3.564 2.039-5.977-6.513 4.1-1.963 3.142 1.609 2.299 4.828z"/><path fill="#152D5D" d="M355.734 330.284l3.121-1.739-3.121-1.561-3.031 1.338 1.516.624c.713.321 1.307 1.026 1.515 1.338z"/><path fill="#152D5D" d="M354.703 329.182a4.075 4.075 0 011.075 1.374l-20.366 27.217c-2.101-4.578-6.509-14.298-7.337-16.556-.828-2.258.658-3.575 1.505-3.951 5.806-2.694 17.7-8.233 18.822-8.83 1.123-.597 2.001-.727 2.3-.717 1.095.299 3.428 1.01 4.001 1.463z"/><path stroke="#00181B" d="M330.709 344.57c-2.277.441-7.579 3.481-10.575 12.118l-.837 3.782"/><rect width="26.844" height="25.879" fill="#1C3B78" rx="2" transform="scale(-1 1) rotate(25.461 -904.021 -620.91)"/><path fill="#E2BBA6" d="M323.125 358.445c-1.421 1.066-6.71 3.405-9.177 4.441l5.421 13.521c6.907-2.819 21.223-8.035 24.387-8.881 3.164-.845 12.674-7.753 15.744-10.008 2.457-1.805 1.287-3.102.395-3.524l1.2-1.692c1.276-2.03-.268-3.045-1.2-3.299.395-.339 1.186-2.843-.395-3.331-1.226-.379-2.871.745-3.604 1.407.4-.381.523-.767.534-.919.296-2.221-2.368-2.221-4.441-1.036-2.072 1.184-11.397 4.44-12.729 4.736-1.333.296-4.589 2.221-5.625 1.629-1.036-.593 3.552-3.109 4.144-3.849.592-.74 4.589-2.368 8.438-2.516 3.848-.148 5.18-1.629 4.588-2.665-.592-1.036-7.401-.296-10.213 0-2.812.296-7.253 2.665-11.842 5.921-4.588 3.257-3.848 8.733-5.625 10.065z"/><path fill="#fff" d="M402.601 345.992v-26.84l-25.307-4.601v26.073l25.307 5.368z"/><ellipse fill="#E1E1E1" rx="6.131" ry="7.449" transform="scale(-1 1) rotate(20.05 -1128.768 -935.782)"/><ellipse fill="#00181B" rx=".791" ry="1.208" transform="matrix(-1 0 0 1 391.446 330.665)"/><ellipse fill="#00181B" rx=".791" ry="1.208" transform="matrix(-1 0 0 1 386.657 329.458)"/><path stroke="#fff" d="M247.039 0v138"/><path fill="#F5F5F5" d="M147.966 74.142C148.044 33.258 114.922 0 74.037 0 33.207 0 .108 33.17.108 74s33.1 74 73.929 74c40.774 0 73.85-33.083 73.929-73.858z"/><path fill="#fff" d="M4.746 70.707C6.29 33.671 36.764 4.441 73.832 4.441c36.692 0 66.995 28.66 69.038 65.296l.238 4.264-.237 4.265c-2.044 36.636-32.347 65.295-69.04 65.295-37.067 0-67.541-29.23-69.085-66.265L4.608 74l.138-3.294z"/><path fill="#E5E5E5" d="M5.108 74h138v6h-138z"/><path fill="#E5E5E5" d="M77.108 4v140h-6V4z"/><rect width="14.012" height="4.145" fill="#FAFAFC" rx="2" transform="matrix(-1 0 0 1 254.045 134.648)"/><rect width="14.012" height="4.145" fill="#FAFAFC" rx="2" transform="matrix(-1 0 0 1 254.045 138.102)"/><rect width="14.012" height="4.145" fill="#FAFAFC" rx="2" transform="matrix(-1 0 0 1 254.045 141.488)"/><rect width="14.012" height="4.145" fill="#FAFAFC" rx="2" transform="matrix(-1 0 0 1 254.045 144.727)"/><ellipse fill="#FF8139" rx="14.347" ry="13.607" transform="matrix(-1 0 0 1 247.038 169.181)"/><path fill="#FF8139" d="M241.19 148.777h11.226c.09 5.403 3.464 9.763 5.177 11.305l-21.165.034c3.901-4.173 4.8-9.298 4.762-11.339z"/><path stroke="#FAFAFC" d="M249.122 148.777c-.469 4.521-.598 14.162 2.643 16.557 4.051 2.995-1.54-6.165-4.711 0-3.17 6.165 3.533 4.604-1.665-1.31-3.787-4.31-5.593 4.235-3.288 1.092 2.432-3.316 2.706-4.273 2.706-16.339"/></svg>

<svg width="470" height="542" viewBox="0 0 470 542" fill="none" xmlns="http://www.w3.org/2000/svg">
<path d="M469.802 100C469.802 44.7715 425.03 0 369.802 0H287.589C226.837 0 177.589 49.2487 177.589 110V541H469.802V100Z" fill="#E1E1E1"/>
<path d="M360.201 515.882C390.476 485.702 429.694 421.515 443.812 394.365L163.772 362.949L35.9076 442.584C166.662 491.384 320.915 555.047 360.201 515.882Z" fill="#D2D2D2"/>
<path d="M407.806 150.117L341.806 140.117V232.117L407.806 242.117V150.117Z" fill="white"/>
<path d="M399.806 161.117L349.806 152.117V222.117L399.806 231.117V161.117Z" fill="#E1E1E1"/>
<path d="M372.806 190.617C374.006 180.617 391.306 166.784 399.806 161.117V212.117C390.306 209.117 371.606 200.617 372.806 190.617Z" fill="#272E80"/>
<path d="M365.306 194.117C370.106 184.117 356.972 177.617 349.806 175.617V222.117L378.306 227.117C357.806 218.117 359.306 206.617 365.306 194.117Z" fill="#FF8139"/>
<path d="M371.344 225.454C376.677 218.454 387.844 201.054 389.844 187.454C391.844 173.854 364.344 189.121 350.344 198.454" stroke="black"/>
<path d="M133.644 393.721L130.378 318.117L442.58 393.721C383.225 435.612 307.788 447.579 238.383 426.114L133.644 393.721Z" fill="white"/>
<ellipse rx="13.5" ry="7" transform="matrix(-1 0 0 1 360.562 404.918)" fill="#152D5D"/>
<ellipse rx="13.5" ry="6" transform="matrix(-1 0 0 1 360.562 381.918)" fill="#152D5D"/>
<path d="M374.062 404.918V381.918H347.062V404.918H374.062Z" fill="#152D5D"/>
<ellipse rx="11.5" ry="5" transform="matrix(-1 0 0 1 360.562 381.918)" fill="black"/>
<path d="M374.062 363.918L369.562 384.918C368.762 385.718 367.562 385.918 367.062 385.918L372.062 363.418L374.062 363.918Z" fill="#FF8139"/>
<path d="M352.062 365.418L359.562 386.918C357.962 386.918 356.562 386.585 356.062 386.418L349.062 366.418L352.062 365.418Z" fill="#FFD300"/>
<path d="M227.874 293.164C228.375 291.088 230.418 289.771 232.516 290.173L321.708 307.276C323.944 307.704 325.371 309.91 324.847 312.125L310.846 371.316C310.338 373.466 308.183 374.797 306.033 374.288L217.494 353.345C215.337 352.835 214.006 350.669 214.526 348.515L227.874 293.164Z" fill="#152D5D"/>
<path d="M229.213 295.813C229.709 293.741 231.742 292.422 233.836 292.813L318.942 308.698C321.187 309.117 322.627 311.328 322.101 313.551L308.795 369.803C308.287 371.953 306.132 373.283 303.982 372.775L219.666 352.831C217.511 352.321 216.18 350.159 216.697 348.006L229.213 295.813Z" fill="#F5F5F5"/>
<path d="M192.448 359.24L216.133 352.511L308.582 374.379L287.33 381.683L192.448 359.24Z" fill="#152D5D"/>
<path d="M192.908 357.293L192.448 359.239L196.801 358.214L192.908 357.293Z" fill="white"/>
<path d="M192.908 357.291L216.593 350.562L309.042 372.43L287.79 379.734L192.908 357.291Z" fill="#152D5D"/>
<path d="M242.203 361.758L234.727 365.127L257.109 370.422L264.099 366.937L242.203 361.758Z" fill="white"/>
<path d="M237.196 359.033L240.602 359.838L239.399 360.581L235.506 359.661L237.196 359.033Z" fill="white"/>
<path d="M232.331 357.884L235.737 358.69L234.533 359.433L230.641 358.512L232.331 357.884Z" fill="white"/>
<path d="M227.465 356.732L230.871 357.538L229.667 358.281L225.775 357.36L227.465 356.732Z" fill="white"/>
<path d="M262.011 364.902L265.904 365.823L264.7 366.566L260.808 365.645L262.011 364.902Z" fill="white"/>
<path d="M266.877 366.054L270.77 366.975L269.567 367.718L265.674 366.797L266.877 366.054Z" fill="white"/>
<path d="M271.743 367.207L275.635 368.127L274.432 368.87L270.539 367.95L271.743 367.207Z" fill="white"/>
<path d="M276.609 368.355L280.501 369.276L279.298 370.019L275.406 369.098L276.609 368.355Z" fill="white"/>
<path d="M281.474 369.508L285.367 370.428L284.163 371.171L280.271 370.25L281.474 369.508Z" fill="white"/>
<path d="M286.34 370.66L290.233 371.581L289.03 372.324L285.137 371.403L286.34 370.66Z" fill="white"/>
<path d="M241.55 358.009L244.956 358.815L243.752 359.558L239.86 358.637L241.55 358.009Z" fill="white"/>
<path d="M246.415 359.158L249.821 359.963L248.617 360.706L244.725 359.786L246.415 359.158Z" fill="white"/>
<path d="M251.281 360.31L254.687 361.116L253.484 361.859L249.591 360.938L251.281 360.31Z" fill="white"/>
<path d="M256.146 361.462L259.552 362.268L258.349 363.011L254.456 362.09L256.146 361.462Z" fill="white"/>
<path d="M261.012 362.611L264.418 363.417L263.215 364.16L259.323 363.239L261.012 362.611Z" fill="white"/>
<path d="M236.683 356.857L240.089 357.663L238.886 358.406L234.993 357.485L236.683 356.857Z" fill="white"/>
<path d="M231.818 355.705L235.224 356.51L234.021 357.253L230.128 356.333L231.818 355.705Z" fill="white"/>
<path d="M265.391 363.648L269.284 364.569L268.08 365.312L264.188 364.391L265.391 363.648Z" fill="white"/>
<path d="M270.257 364.8L274.15 365.721L272.947 366.464L269.054 365.543L270.257 364.8Z" fill="white"/>
<path d="M275.123 365.949L279.015 366.87L277.812 367.613L273.919 366.692L275.123 365.949Z" fill="white"/>
<path d="M279.989 367.101L283.881 368.022L282.678 368.765L278.785 367.844L279.989 367.101Z" fill="white"/>
<path d="M284.854 368.25L288.747 369.17L287.543 369.913L283.651 368.993L284.854 368.25Z" fill="white"/>
<path d="M289.72 369.402L293.613 370.323L292.409 371.066L288.517 370.145L289.72 369.402Z" fill="white"/>
<path d="M259.696 365.385L245.238 361.965L246.58 361.255L261.038 364.675L259.696 365.385Z" fill="white"/>
<path d="M242.062 360.185L245.468 360.991L244.265 361.734L240.372 360.813L242.062 360.185Z" fill="white"/>
<path d="M210.977 394.741C210.977 394.741 200.112 393.279 191.417 382.465C191.417 382.465 193.586 391.557 181.988 401.97C173.955 409.159 180.221 447.458 183.605 454.216C183.605 454.216 151.553 485.796 99.3789 460.504C99.3789 460.504 112.483 412.814 113.437 385.85C114.611 355.231 118.156 335.546 128.88 306.639C139.604 277.733 142.144 261.783 140.688 246.563C139.233 231.344 139.966 207.514 166.796 201.757C193.626 195.999 196.799 227.549 196.799 227.549C196.799 227.549 199.169 267.89 188.615 277.132C179.367 285.282 163.512 274.939 163.512 274.939C163.512 274.939 159.837 293.653 164.095 300.261C164.095 300.261 169.969 306.98 184.478 312.757C199.63 318.765 202.06 362.821 210.093 370.891" fill="#E2BBA6"/>
<path d="M180.03 202.23C181.105 208.789 182.822 219.322 184.408 229.705C183.404 219.923 181.546 209.089 180.261 202.311L180.03 202.23Z" fill="#CEA999"/>
<path d="M196.779 227.59L184.408 229.703L185.031 239.114C185.151 244.281 184.739 248.426 183.464 250.389C178.122 258.629 175.994 239.375 171.575 239.795C167.157 240.216 165.099 245.242 168.272 253.813C171.445 262.384 160.038 264.767 159.054 269.573C158.07 274.379 150.409 301.443 159.054 310.705L172.298 306.7C169.3 304.932 166.545 302.781 164.105 300.302C159.847 293.694 163.522 274.98 163.522 274.98C163.522 274.98 179.367 285.323 188.625 277.173C189.392 276.487 190.066 275.706 190.634 274.85C195.905 267.47 196.658 248.737 196.809 244.722C196.96 240.706 196.779 227.59 196.779 227.59Z" fill="#CEA999"/>
<path d="M130.507 302.164C130.507 302.164 125.707 306.169 121.379 318.184C117.051 330.2 128.308 311.266 128.308 311.266L129.633 304.567L130.507 302.164Z" fill="#292289"/>
<path d="M182.3 450.633C182.3 450.633 197.665 505.595 196.802 539.999H94.8018H79.8018C79.8018 539.999 80.8018 512.499 85.3018 494.499C89.8018 476.499 101.277 453.286 101.277 453.286C101.277 453.286 145.81 476.105 182.3 450.633Z" fill="#F4EFEF"/>
<path d="M254.064 490.805C243.36 486.016 203.595 470.5 185.051 463.34L188.22 541.509H270.262C269.323 526.603 264.769 495.593 254.064 490.805Z" fill="#F4EFEF"/>
<path d="M314.219 360.799C297.754 364.791 274.686 373.72 244.251 368.232C213.816 362.744 204.828 325.454 184.478 312.799C178.94 310.664 173.694 307.842 168.864 304.398C145.066 312.238 134.352 309.475 129.623 304.549C129.372 305.24 121.989 311.076 117.801 322C112.801 353 110.966 366.727 109.862 397.336C108.858 424.3 101.267 453.287 101.267 453.287C108.607 486.739 183.605 454.218 183.605 454.218C180.652 446.368 173.985 409.161 181.988 401.972C193.586 391.559 191.417 382.467 191.417 382.467C210.135 401.972 234.03 401.972 234.03 401.972C256.839 401.972 308.271 382.467 320.246 375.722L314.219 360.799Z" fill="#F4C7C3"/>
<path d="M320.372 376.176L318.562 371.606C318.562 371.606 259.634 399.559 232.614 398.375C223.273 397.965 214.973 392.279 205.625 389.505C196.277 386.732 187.119 369.02 187.119 369.02C186.316 387.393 174.236 390.286 166.886 405.265C161.434 416.38 165.36 445.737 167.75 460.155C177.098 457.031 183.605 454.217 183.605 454.217C180.653 446.367 173.985 409.16 181.988 401.971C193.586 391.558 191.417 382.467 191.417 382.467C200.112 393.3 213.668 399.488 213.668 399.488C237.21 412.305 308.675 381.798 320.372 376.176Z" fill="#D3A8A4"/>
<g style="mix-blend-mode:multiply" opacity="0.3">
<path d="M133.479 464.07C133.66 465.282 133.831 466.463 134.002 467.635C133.831 466.463 133.66 465.282 133.479 464.07Z" fill="black"/>
</g>
<g style="mix-blend-mode:multiply" opacity="0.3">
<path d="M133.338 463.15C133.338 462.829 133.248 462.509 133.198 462.148C133.238 462.509 133.298 462.829 133.338 463.15Z" fill="black"/>
</g>
<path d="M184.802 240L199.302 234.999C200.302 233.499 197.873 216.499 191.802 207.999C186.802 200.999 179.302 196.499 174.302 198.499C159.302 196.499 133.302 188 121.802 222.5C118.03 233.814 110.302 268.999 110.302 312.999C110.302 347.063 117.302 357.499 133.302 357.499C157.802 357.499 174.802 322.333 176.802 309.499C178.802 311.099 182.968 312.499 184.802 312.999C181.202 305.799 181.635 251.333 182.302 224.999C183.302 232 184.802 238.833 184.802 240Z" fill="#00181B"/>
<path d="M133.938 521L129.802 540H139.802C137.802 531 134.574 523.167 133.938 521Z" fill="#E1E1E1"/>
<path d="M133.802 521L129.802 540H121.802L125.802 525.5L115.302 519.5C120.102 520.3 129.635 520.833 133.802 521Z" fill="#C4C4C4"/>
<path d="M116.222 391.305C106.516 385.311 88.0062 383.435 68.5695 383.445C29.0429 383.466 0.108398 418.084 0.108398 457.611V540.999H226.691C226.825 537.502 227.013 525.102 226.691 503.475C226.368 481.848 210.967 473.213 203.307 471.599H152.91C153.556 422.212 142.357 407.444 116.222 391.305Z" fill="#FAFAFC"/>
<path d="M363.5 328.221C363.74 328.085 364.045 328.17 364.181 328.411C364.316 328.651 364.231 328.956 363.991 329.092L363.5 328.221ZM358.427 331.081L363.5 328.221L363.991 329.092L358.918 331.952L358.427 331.081Z" fill="#00181B"/>
<path d="M360.316 326.467C360.557 326.331 360.861 326.416 360.997 326.657C361.133 326.897 361.048 327.202 360.807 327.338L360.316 326.467ZM355.243 329.327L360.316 326.467L360.807 327.338L355.734 330.198L355.243 329.327Z" fill="#00181B"/>
<path d="M361.182 333.421L357.618 335.46L351.641 328.947L355.741 326.984L358.883 328.593L361.182 333.421Z" fill="#1C3B78"/>
<path d="M355.734 330.284L358.855 328.545L355.734 326.984L352.703 328.322L354.219 328.946C354.932 329.267 355.526 329.972 355.734 330.284Z" fill="#152D5D"/>
<path d="M354.703 329.182C355.276 329.636 355.659 330.287 355.778 330.556L335.412 357.773C333.311 353.195 328.903 343.475 328.075 341.217C327.247 338.959 328.733 337.642 329.58 337.266C335.386 334.572 347.28 329.033 348.402 328.436C349.525 327.839 350.403 327.709 350.702 327.719C351.797 328.018 354.13 328.729 354.703 329.182Z" fill="#152D5D"/>
<path d="M330.709 344.57C328.432 345.011 323.13 348.051 320.134 356.688L319.297 360.47" stroke="#00181B"/>
<rect width="26.8442" height="25.8787" rx="2" transform="matrix(-0.902878 0.429897 0.429897 0.902878 354.728 328.332)" fill="#1C3B78"/>
<path d="M323.125 358.445C321.704 359.511 316.415 361.85 313.948 362.886L319.369 376.407C326.276 373.588 340.592 368.372 343.756 367.526C346.92 366.681 356.43 359.773 359.5 357.518C361.957 355.713 360.787 354.416 359.895 353.994L361.095 352.302C362.371 350.272 360.827 349.257 359.895 349.003C360.29 348.664 361.081 346.16 359.5 345.672C358.274 345.293 356.629 346.417 355.896 347.079C356.296 346.698 356.419 346.312 356.43 346.16C356.726 343.939 354.062 343.939 351.989 345.124C349.917 346.308 340.592 349.564 339.26 349.86C337.927 350.156 334.671 352.081 333.635 351.489C332.599 350.896 337.187 348.38 337.779 347.64C338.371 346.9 342.368 345.272 346.217 345.124C350.065 344.976 351.397 343.495 350.805 342.459C350.213 341.423 343.404 342.163 340.592 342.459C337.78 342.755 333.339 345.124 328.75 348.38C324.162 351.637 324.902 357.113 323.125 358.445Z" fill="#E2BBA6"/>
<path d="M402.601 345.992V319.152L377.294 314.551V340.624L402.601 345.992Z" fill="white"/>
<ellipse rx="6.13087" ry="7.44884" transform="matrix(-0.939394 0.342838 0.342838 0.939394 389.231 330.271)" fill="#E1E1E1"/>
<ellipse rx="0.790964" ry="1.2075" transform="matrix(-1 0 0 1 391.446 330.665)" fill="#00181B"/>
<ellipse rx="0.790964" ry="1.2075" transform="matrix(-1 0 0 1 386.657 329.458)" fill="#00181B"/>
<path d="M247.039 0V138" stroke="white"/>
<path d="M147.966 74.1425C148.044 33.2573 114.922 0 74.0372 0C33.2074 0 0.108398 33.1703 0.108398 74.0001C0.108398 114.83 33.2074 148 74.037 148C114.811 148 147.887 114.917 147.966 74.1425Z" fill="#F5F5F5"/>
<path d="M4.74574 70.7072C6.2898 33.6714 36.7638 4.44141 73.8318 4.44141C110.524 4.44141 140.827 33.1013 142.87 69.7365L143.108 74.0015L142.871 78.2663C140.827 114.902 110.524 143.561 73.8318 143.561C36.7638 143.561 6.28979 114.331 4.74574 77.2956L4.6084 74.0015L4.74574 70.7072Z" fill="white"/>
<rect x="5.1084" y="74" width="138" height="6" fill="#E5E5E5"/>
<rect x="77.1084" y="4" width="140" height="5.99999" transform="rotate(90 77.1084 4)" fill="#E5E5E5"/>
<rect width="14.0118" height="4.14455" rx="2" transform="matrix(-1 0 0 1 254.045 134.648)" fill="#FAFAFC"/>
<rect width="14.0118" height="4.14455" rx="2" transform="matrix(-1 0 0 1 254.045 138.102)" fill="#FAFAFC"/>
<rect width="14.0118" height="4.14455" rx="2" transform="matrix(-1 0 0 1 254.045 141.488)" fill="#FAFAFC"/>
<rect width="14.0118" height="4.14455" rx="2" transform="matrix(-1 0 0 1 254.045 144.727)" fill="#FAFAFC"/>
<ellipse rx="14.3474" ry="13.6069" transform="matrix(-1 0 0 1 247.038 169.181)" fill="#FF8139"/>
<path d="M241.19 148.777H252.416C252.506 154.18 255.88 158.54 257.593 160.082L236.428 160.116C240.329 155.943 241.228 150.818 241.19 148.777Z" fill="#FF8139"/>
<path d="M249.122 148.777C248.653 153.298 248.524 162.939 251.765 165.334C255.816 168.329 250.225 159.169 247.054 165.334C243.884 171.499 250.587 169.938 245.389 164.024C241.602 159.714 239.796 168.259 242.101 165.116C244.533 161.8 244.807 160.843 244.807 148.777" stroke="#FAFAFC"/>
</svg>
